;FLAVOR:Marlin
;TIME:2763
;Filament used: 2.6799m
;Layer height: 0.3
;MINX:71.203
;MINY:78.491
;MINZ:0.3
;MAXX:125.803
;MAXY:160.648
;MAXZ:5.3
;Generated with Cura_SteamEngine 5.4.0
M140 S60
M105
M190 S60
M82 ;absolute extrusion mode
;Sliced at: Tue 06-02-2024 09:11:51
;Basic settings: Layer height: 0.3 Walls: 0.8 Fill: 30.0
G21 ;metric values
G90 ;absolute positioning
M82 ;set extruder to absolute mode
M107 ;start with the fan off
M117 Start heating ...
M104 S215.0
M117 Homing X/Y ...
G28 X0 Y0 ;move X/Y to min endstops
M117 Homing Z ...
G28 Z0 ;move Z to min endstops
G1 Z15.0 F100 ;move the platform down 15mm
M117 Heating ...
M109 S215.0
M117 Start cleaning ...
G92 E0 ;zero the extruded length
G1 F200 E10 ;extrude 10mm of feed stock
G92 E0 ;zero the extruded length again
M117 Intro line ...
G1 Z2.0 F3000 ; Move Z Axis up little to prevent scratching of Heat Bed
G1 X0.1 Y20 Z0.3 F5000.0 ; Move to start position
G1 X0.1 Y200.0 Z0.3 F1500.0 E15 ; Draw the first line
G1 X0.4 Y200.0 Z0.3 F5000.0 ; Move to side a little
G1 X0.4 Y20 Z0.3 F1500.0 E30 ; Draw the second line
G92 E0 ; Reset Extruder
G1 E-1 F500 ; Retract filiment by 1 mm
G1 Z2.0 F3000 ; Move Z Axis up little to prevent scratching of Heat Bed
G1 X5 Y20 Z0.3 F100 ; Move over to prevent blob squish
G1 F100
G92 E0 ; Reset Extruder
M117 Printing...

G92 E0
G92 E0
G1 F1800 E-7
;LAYER_COUNT:17
;LAYER:0
M107
G1 F300 Z0.5
;MESH:Body2.3mf(1)
G0 F3000 X85.771 Y84.874 Z0.5
;TYPE:WALL-INNER
G1 F300 Z0.3
G1 F1800 E0
G1 X85.3 Y84.88 E0.0235
G1 X84.858 Y84.786 E0.04604
G1 X84.415 Y84.584 E0.07034
G1 X83.935 Y84.185 E0.10148
G1 X83.681 Y83.837 E0.12297
G1 X83.474 Y83.322 E0.15066
G1 X83.407 Y82.914 E0.17129
G1 X83.438 Y82.409 E0.19653
G1 X83.602 Y81.903 E0.22307
G1 X83.859 Y81.487 E0.24746
G1 X84.205 Y81.143 E0.27181
G1 X84.618 Y80.89 E0.29597
G1 X85.064 Y80.736 E0.31951
G1 X85.566 Y80.694 E0.34464
G1 X86.043 Y80.764 E0.36869
G1 X86.504 Y80.947 E0.39344
G1 X86.906 Y81.232 E0.41802
G1 X87.222 Y81.589 E0.44181
G1 X87.404 Y81.9 E0.45979
G1 X87.556 Y82.35 E0.48348
G1 X87.598 Y82.933 E0.51265
G1 X87.517 Y83.382 E0.53541
G1 X87.31 Y83.86 E0.5614
G1 X87.013 Y84.25 E0.58585
G1 X86.707 Y84.511 E0.60592
G1 X86.281 Y84.741 E0.63007
G1 X85.771 Y84.874 E0.65637
G1 F1800 E-6.34363
G1 F300 Z0.5
G0 F3000 X111.706 Y84.881 Z0.5
G1 F300 Z0.3
G1 F1800 E0.65637
G1 X111.235 Y84.873 E0.67987
G1 X110.728 Y84.739 E0.70603
G1 X110.306 Y84.515 E0.72987
G1 X109.992 Y84.248 E0.75043
G1 X109.695 Y83.86 E0.77481
G1 X109.504 Y83.429 E0.79833
G1 X109.409 Y82.941 E0.82313
G1 X109.426 Y82.499 E0.8452
G1 X109.545 Y82.034 E0.86914
G1 X109.859 Y81.487 E0.90061
G1 X110.205 Y81.143 E0.92495
G1 X110.618 Y80.89 E0.94912
G1 X111.064 Y80.736 E0.97266
G1 X111.566 Y80.694 E0.99779
G1 X112.043 Y80.764 E1.02184
G1 X112.504 Y80.947 E1.04659
G1 X112.906 Y81.232 E1.07117
G1 X113.141 Y81.481 E1.08825
G1 X113.404 Y81.901 E1.11298
G1 X113.574 Y82.438 E1.14108
G1 X113.6 Y82.902 E1.16426
G1 X113.516 Y83.387 E1.18882
G1 X113.356 Y83.773 E1.20967
G1 X113.07 Y84.186 E1.23473
G1 X112.72 Y84.5 E1.25819
G1 X112.296 Y84.733 E1.28232
G1 X111.706 Y84.881 E1.31267
G1 F1800 E-5.68733
G1 F300 Z0.5
G0 F3000 X115.876 Y84.392 Z0.5
G1 F300 Z0.3
G1 F1800 E1.31267
G1 X125.403 Y84.391 E1.78798
G1 X125.403 Y78.891 E2.06237
G1 X71.603 Y78.891 E4.74647
G1 X71.603 Y84.391 E5.02086
G1 X81.133 Y84.392 E5.49631
G1 X81.388 Y84.53 E5.51078
G1 X81.544 Y84.728 E5.52336
G1 X81.604 Y84.904 E5.53263
G1 X81.604 Y112.69 E6.91888
G1 X115.403 Y112.691 E8.60512
G1 X115.403 Y84.901 E9.99157
G1 X115.462 Y84.729 E10.00064
G1 X115.618 Y84.53 E10.01326
G1 X115.876 Y84.392 E10.02785
G1 F1800 E3.02785
G1 F300 Z0.5
G0 F3000 X111.773 Y110.874 Z0.5
G1 F300 Z0.3
G1 F1800 E10.02785
G1 X111.335 Y110.881 E10.04971
G1 X110.858 Y110.786 E10.07397
G1 X110.294 Y110.505 E10.10541
G1 X109.926 Y110.173 E10.13014
G1 X109.649 Y109.772 E10.15445
G1 X109.474 Y109.322 E10.17854
G1 X109.408 Y108.929 E10.19842
G1 X109.426 Y108.499 E10.21989
G1 X109.549 Y108.022 E10.24447
G1 X109.813 Y107.543 E10.27176
G1 X110.156 Y107.178 E10.29675
G1 X110.6 Y106.897 E10.32296
G1 X111.047 Y106.74 E10.3466
G1 X111.528 Y106.691 E10.37072
G1 X112.042 Y106.764 E10.39662
G1 X112.504 Y106.947 E10.42141
G1 X112.906 Y107.231 E10.44597
G1 X113.141 Y107.481 E10.46308
G1 X113.462 Y108.034 E10.49499
G1 X113.579 Y108.483 E10.51813
G1 X113.601 Y108.872 E10.53757
G1 X113.53 Y109.323 E10.56035
G1 X113.356 Y109.773 E10.58442
G1 X113.011 Y110.251 E10.61383
G1 X112.72 Y110.5 E10.63294
G1 X112.296 Y110.734 E10.6571
G1 X111.773 Y110.874 E10.68411
G1 F1800 E3.68411
G1 F300 Z0.5
G0 F3000 X99.028 Y107.629 Z0.5
G1 F300 Z0.3
G1 F1800 E10.68411
G1 X97.979 Y107.629 E10.73645
G1 X96.969 Y107.542 E10.78702
G1 X96.026 Y107.379 E10.83477
G1 X95.011 Y107.115 E10.88709
G1 X94.056 Y106.776 E10.93765
G1 X93.149 Y106.362 E10.98739
G1 X92.308 Y105.893 E11.03543
G1 X91.478 Y105.334 E11.08535
G1 X90.679 Y104.692 E11.13649
G1 X89.966 Y104.01 E11.18571
G1 X89.297 Y103.252 E11.23615
G1 X88.703 Y102.451 E11.2859
G1 X88.153 Y101.561 E11.3381
G1 X87.696 Y100.653 E11.38882
G1 X87.338 Y99.759 E11.43686
G1 X87.04 Y98.8 E11.48696
G1 X86.823 Y97.793 E11.53835
G1 X86.698 Y96.826 E11.587
G1 X86.653 Y95.769 E11.63978
G1 X86.698 Y94.756 E11.69037
G1 X86.819 Y93.816 E11.73765
G1 X87.04 Y92.782 E11.79041
G1 X87.338 Y91.823 E11.84051
G1 X87.696 Y90.929 E11.88855
G1 X88.153 Y90.02 E11.93931
G1 X88.695 Y89.141 E11.99083
G1 X89.264 Y88.369 E12.03868
G1 X89.932 Y87.607 E12.08923
G1 X90.691 Y86.88 E12.14167
G1 X91.48 Y86.246 E12.19217
G1 X92.308 Y85.689 E12.24195
G1 X93.149 Y85.22 E12.28999
G1 X94.056 Y84.806 E12.33973
G1 X95.011 Y84.467 E12.39029
G1 X96.027 Y84.202 E12.44268
G1 X96.97 Y84.04 E12.49041
G1 X97.979 Y83.953 E12.54094
G1 X99.028 Y83.953 E12.59327
G1 X100.036 Y84.04 E12.64375
G1 X100.979 Y84.202 E12.69148
G1 X101.996 Y84.467 E12.74392
G1 X102.951 Y84.806 E12.79447
G1 X103.857 Y85.22 E12.84417
G1 X104.743 Y85.716 E12.89483
G1 X105.527 Y86.246 E12.94204
G1 X106.316 Y86.88 E12.99254
G1 X107.04 Y87.571 E13.04247
G1 X107.705 Y88.324 E13.09259
G1 X108.332 Y89.173 E13.14525
G1 X108.854 Y90.021 E13.19493
G1 X109.289 Y90.882 E13.24305
G1 X109.669 Y91.823 E13.29368
G1 X109.964 Y92.776 E13.34345
G1 X110.187 Y93.815 E13.39647
G1 X110.309 Y94.755 E13.44376
G1 X110.353 Y95.812 E13.49654
G1 X110.309 Y96.827 E13.54723
G1 X110.183 Y97.793 E13.59583
G1 X109.966 Y98.799 E13.64717
G1 X109.669 Y99.759 E13.69731
G1 X109.289 Y100.7 E13.74794
G1 X108.854 Y101.561 E13.79606
G1 X108.337 Y102.403 E13.84536
G1 X107.709 Y103.252 E13.89804
G1 X107.075 Y103.973 E13.94594
G1 X106.316 Y104.702 E13.99845
G1 X105.559 Y105.312 E14.04695
G1 X104.698 Y105.893 E14.09877
G1 X103.857 Y106.362 E14.14681
G1 X102.951 Y106.776 E14.19651
G1 X101.996 Y107.115 E14.24706
G1 X100.979 Y107.379 E14.29948
G1 X100.037 Y107.542 E14.34718
G1 X99.028 Y107.629 E14.3977
G1 F1800 E7.3977
G1 F300 Z0.5
G0 F3000 X85.773 Y110.874 Z0.5
G1 F300 Z0.3
G1 F1800 E14.3977
G1 X85.335 Y110.881 E14.41956
G1 X84.858 Y110.786 E14.44382
G1 X84.415 Y110.584 E14.46812
G1 X83.994 Y110.25 E14.49493
G1 X83.649 Y109.772 E14.52434
G1 X83.474 Y109.322 E14.54842
G1 X83.407 Y108.882 E14.57063
G1 X83.449 Y108.363 E14.59661
G1 X83.602 Y107.903 E14.62079
G1 X83.859 Y107.487 E14.64519
G1 X84.205 Y107.143 E14.66953
G1 X84.618 Y106.89 E14.69369
G1 X85.101 Y106.731 E14.71906
G1 X85.47 Y106.691 E14.73758
G1 X85.962 Y106.742 E14.76226
G1 X86.447 Y106.913 E14.78791
G1 X86.885 Y107.211 E14.81434
G1 X87.188 Y107.537 E14.83655
G1 X87.458 Y108.023 E14.86429
G1 X87.581 Y108.49 E14.88838
G1 X87.599 Y108.922 E14.90995
G1 X87.531 Y109.323 E14.93024
G1 X87.286 Y109.896 E14.96133
G1 X86.986 Y110.274 E14.98541
G1 X86.603 Y110.578 E15.0098
G1 X86.296 Y110.734 E15.02698
G1 X85.773 Y110.874 E15.054
G0 F3000 X85.704 Y110.48
;TYPE:WALL-OUTER
G1 F1800 X85.291 Y110.476 E15.0746
G1 X84.906 Y110.381 E15.09439
G1 X84.552 Y110.199 E15.11424
G1 X84.27 Y109.96 E15.13269
G1 X84.017 Y109.616 E15.15399
G1 X83.868 Y109.252 E15.17361
G1 X83.807 Y108.871 E15.19286
G1 X83.833 Y108.475 E15.21266
G1 X83.929 Y108.146 E15.22976
G1 X84.124 Y107.798 E15.24966
G1 X84.388 Y107.508 E15.26923
G1 X84.716 Y107.286 E15.28899
G1 X85.098 Y107.14 E15.30939
G1 X85.478 Y107.091 E15.3285
G1 X85.908 Y107.141 E15.3501
G1 X86.265 Y107.269 E15.36902
G1 X86.595 Y107.487 E15.38875
G1 X86.865 Y107.774 E15.40841
G1 X87.058 Y108.102 E15.4274
G1 X87.181 Y108.512 E15.44876
G1 X87.2 Y108.89 E15.46764
G1 X87.124 Y109.297 E15.48829
G1 X86.988 Y109.617 E15.50564
G1 X86.758 Y109.936 E15.52526
G1 X86.461 Y110.195 E15.54492
G1 X86.115 Y110.377 E15.56443
G1 X85.704 Y110.48 E15.58557
G0 F3000 X85.504 Y110.479
G1 F1800 E8.58557
G1 F300 Z0.5
G0 F3000 X98.994 Y107.231 Z0.5
G1 F300 Z0.3
G1 F1800 E15.58557
G1 X98.013 Y107.231 E15.63451
G1 X97.037 Y107.148 E15.68338
G1 X96.094 Y106.985 E15.73112
G1 X95.144 Y106.737 E15.7801
G1 X94.222 Y106.412 E15.82888
G1 X93.359 Y106.02 E15.87617
G1 X92.488 Y105.534 E15.92593
G1 X91.689 Y104.992 E15.9741
G1 X90.938 Y104.387 E16.02221
G1 X90.231 Y103.709 E16.07108
G1 X89.597 Y102.988 E16.11898
G1 X89.015 Y102.199 E16.16789
G1 X88.502 Y101.365 E16.21674
G1 X88.068 Y100.504 E16.26485
G1 X87.704 Y99.595 E16.3137
G1 X87.422 Y98.682 E16.36137
G1 X87.216 Y97.715 E16.4107
G1 X87.095 Y96.775 E16.45798
G1 X87.053 Y95.786 E16.50737
G1 X87.095 Y94.807 E16.55625
G1 X87.219 Y93.851 E16.60435
G1 X87.422 Y92.9 E16.65286
G1 X87.704 Y91.987 E16.70054
G1 X88.075 Y91.062 E16.75026
G1 X88.514 Y90.195 E16.79874
G1 X89.025 Y89.369 E16.8472
G1 X89.597 Y88.593 E16.8953
G1 X90.232 Y87.871 E16.94327
G1 X90.931 Y87.201 E16.99157
G1 X91.704 Y86.578 E17.0411
G1 X92.503 Y86.039 E17.08919
G1 X93.359 Y85.562 E17.13808
G1 X94.222 Y85.17 E17.18536
G1 X95.16 Y84.84 E17.23497
G1 X96.095 Y84.596 E17.28318
G1 X97.055 Y84.432 E17.33177
G1 X98.013 Y84.351 E17.37974
G1 X98.994 Y84.351 E17.42868
G1 X99.968 Y84.434 E17.47745
G1 X100.911 Y84.596 E17.52518
G1 X101.863 Y84.845 E17.57428
G1 X102.785 Y85.17 E17.62305
G1 X103.647 Y85.562 E17.67029
G1 X104.519 Y86.048 E17.7201
G1 X105.316 Y86.588 E17.76813
G1 X106.078 Y87.203 E17.81698
G1 X106.774 Y87.871 E17.86511
G1 X107.405 Y88.588 E17.91276
G1 X107.992 Y89.383 E17.96206
G1 X108.505 Y90.216 E18.01087
G1 X108.939 Y91.078 E18.05902
G1 X109.303 Y91.988 E18.10792
G1 X109.582 Y92.894 E18.15521
G1 X109.79 Y93.867 E18.20485
G1 X109.912 Y94.807 E18.25214
G1 X109.953 Y95.796 E18.30153
G1 X109.912 Y96.775 E18.35041
G1 X109.789 Y97.724 E18.39815
G1 X109.584 Y98.681 E18.44698
G1 X109.303 Y99.594 E18.49464
G1 X108.932 Y100.52 E18.54441
G1 X108.497 Y101.379 E18.59245
G1 X107.996 Y102.193 E18.64013
G1 X107.409 Y102.988 E18.68943
G1 X106.775 Y103.709 E18.73733
G1 X106.065 Y104.39 E18.78642
G1 X105.305 Y105.002 E18.8351
G1 X104.504 Y105.543 E18.88332
G1 X103.647 Y106.02 E18.93225
G1 X102.785 Y106.412 E18.9795
G1 X101.847 Y106.742 E19.02911
G1 X100.911 Y106.985 E19.07735
G1 X99.969 Y107.148 E19.12505
G1 X98.994 Y107.231 E19.17386
G0 F3000 X98.794 Y107.231
G1 F1800 E12.17386
G1 F300 Z0.5
G0 F3000 X111.704 Y110.48 Z0.5
G1 F300 Z0.3
G1 F1800 E19.17386
G1 X111.291 Y110.476 E19.19447
G1 X110.906 Y110.381 E19.21425
G1 X110.552 Y110.199 E19.23411
G1 X110.247 Y109.934 E19.25427
G1 X110.017 Y109.616 E19.27385
G1 X109.868 Y109.252 E19.29347
G1 X109.807 Y108.898 E19.31139
G1 X109.833 Y108.475 E19.33254
G1 X109.948 Y108.103 E19.35196
G1 X110.136 Y107.779 E19.37065
G1 X110.408 Y107.489 E19.39049
G1 X110.756 Y107.266 E19.41111
G1 X111.127 Y107.132 E19.43079
G1 X111.508 Y107.091 E19.44991
G1 X111.908 Y107.141 E19.47002
G1 X112.284 Y107.281 E19.49003
G1 X112.614 Y107.505 E19.50993
G1 X112.876 Y107.791 E19.52928
G1 X113.059 Y108.103 E19.54733
G1 X113.171 Y108.462 E19.56609
G1 X113.201 Y108.872 E19.5866
G1 X113.123 Y109.297 E19.60816
G1 X112.988 Y109.617 E19.62549
G1 X112.758 Y109.936 E19.64511
G1 X112.461 Y110.195 E19.66477
G1 X112.115 Y110.377 E19.68427
G1 X111.704 Y110.48 E19.70541
G0 F3000 X111.504 Y110.479
G1 F1800 E12.70541
G1 F300 Z0.5
G0 F3000 X111.682 Y84.482 Z0.5
G1 F300 Z0.3
G1 F1800 E19.70541
G1 X111.303 Y84.479 E19.72432
G1 X110.906 Y84.381 E19.74472
G1 X110.556 Y84.203 E19.76431
G1 X110.269 Y83.959 E19.7831
G1 X110.033 Y83.645 E19.8027
G1 X109.878 Y83.288 E19.82212
G1 X109.807 Y82.902 E19.8417
G1 X109.833 Y82.475 E19.86304
G1 X109.929 Y82.146 E19.88014
G1 X110.151 Y81.761 E19.90231
G1 X110.425 Y81.477 E19.922
G1 X110.756 Y81.266 E19.94158
G1 X111.133 Y81.13 E19.96158
G1 X111.498 Y81.091 E19.97989
G1 X111.909 Y81.141 E20.00055
G1 X112.284 Y81.281 E20.02052
G1 X112.579 Y81.476 E20.03816
G1 X112.849 Y81.755 E20.05753
G1 X113.059 Y82.103 E20.07781
G1 X113.178 Y82.492 E20.0981
G1 X113.198 Y82.907 E20.11883
G1 X113.132 Y83.275 E20.13748
G1 X112.977 Y83.638 E20.15718
G1 X112.755 Y83.94 E20.17588
G1 X112.461 Y84.195 E20.19529
G1 X112.071 Y84.393 E20.21711
G1 X111.682 Y84.482 E20.23702
G0 F3000 X111.482 Y84.481
G1 F1800 E13.23702
G1 F300 Z0.5
G0 F3000 X85.703 Y84.48 Z0.5
G1 F300 Z0.3
G1 F1800 E20.23702
G1 X85.335 Y84.482 E20.25538
G1 X84.906 Y84.381 E20.27737
G1 X84.552 Y84.199 E20.29723
G1 X84.247 Y83.934 E20.31739
G1 X84.027 Y83.636 E20.33587
G1 X83.868 Y83.252 E20.3566
G1 X83.809 Y82.917 E20.37357
G1 X83.827 Y82.504 E20.3942
G1 X83.929 Y82.146 E20.41277
G1 X84.151 Y81.761 E20.43494
G1 X84.425 Y81.477 E20.45463
G1 X84.756 Y81.266 E20.47421
G1 X85.133 Y81.13 E20.49421
G1 X85.498 Y81.091 E20.51252
G1 X85.909 Y81.141 E20.53318
G1 X86.284 Y81.281 E20.55315
G1 X86.579 Y81.476 E20.57079
G1 X86.849 Y81.755 E20.59016
G1 X87.058 Y82.102 E20.61037
G1 X87.181 Y82.512 E20.63172
G1 X87.2 Y82.893 E20.65076
G1 X87.132 Y83.273 E20.67001
G1 X86.988 Y83.617 E20.68862
G1 X86.736 Y83.961 E20.70989
G1 X86.457 Y84.199 E20.72819
G1 X86.11 Y84.379 E20.74769
G1 X85.703 Y84.48 E20.76861
G0 F3000 X85.503 Y84.481
G1 F1800 E13.76861
G1 F300 Z0.5
G0 F3000 X81.204 Y84.919 Z0.5
G1 F300 Z0.3
G1 F1800 E20.76861
G1 X81.204 Y113.09 E22.17407
G1 X115.803 Y113.091 E23.90022
G1 X115.807 Y84.948 E25.30428
G1 X115.874 Y84.837 E25.31075
G1 X115.974 Y84.792 E25.31622
G1 X125.803 Y84.791 E25.80659
G1 X125.803 Y78.491 E26.1209
G1 X71.203 Y78.491 E28.84491
G1 X71.203 Y84.791 E29.15921
G1 X81.044 Y84.79 E29.65018
G1 X81.204 Y84.919 E29.66044
G0 F3000 X81.204 Y85.119
G1 F1800 E22.66044
G1 F300 Z0.5
G0 F3000 X85.839 Y111.249 Z0.5
;TYPE:SKIN
G1 F300 Z0.3
G1 F1800 E29.66044
G1 X86.288 Y111.14 E29.68349
G1 X86.765 Y110.924 E29.70961
G1 X87.228 Y110.567 E29.73878
G1 X87.667 Y110.03 E29.77338
G1 X87.897 Y109.424 E29.80572
G1 X87.978 Y108.95 E29.82971
G1 X87.96 Y108.468 E29.85378
G1 X87.825 Y107.921 E29.88189
G1 X87.494 Y107.311 E29.91651
G1 X87.086 Y106.881 E29.94608
G1 X86.615 Y106.57 E29.97424
G1 X86.033 Y106.369 E30.00496
G1 X85.443 Y106.312 E30.03453
G1 X85.024 Y106.361 E30.05558
G1 X84.49 Y106.533 E30.08357
G1 X83.967 Y106.847 E30.114
G1 X83.59 Y107.218 E30.14039
G1 X83.275 Y107.708 E30.16945
G1 X83.088 Y108.242 E30.19768
G1 X83.029 Y108.909 E30.23109
G1 X83.099 Y109.386 E30.25514
G1 X83.303 Y109.935 E30.28436
G1 X83.732 Y110.526 E30.32079
G1 X84.043 Y110.79 E30.34115
G1 X84.553 Y111.077 E30.37034
G1 X85.126 Y111.242 E30.40009
G1 X85.839 Y111.249 E30.43566
G1 F1800 E23.43566
G1 F300 Z0.5
G0 F3000 X111.841 Y111.249 Z0.5
G1 F300 Z0.3
G1 F1800 E30.43566
G1 X112.48 Y111.068 E30.4688
G1 X112.935 Y110.812 E30.49485
G1 X113.264 Y110.536 E30.51627
G1 X113.702 Y109.936 E30.55333
G1 X113.905 Y109.387 E30.58253
G1 X113.981 Y108.869 E30.60865
G1 X113.958 Y108.456 E30.62929
G1 X113.8 Y107.812 E30.66237
G1 X113.443 Y107.252 E30.69551
G1 X113.181 Y106.969 E30.71475
G1 X112.617 Y106.56 E30.7495
