;FLAVOR:Marlin
;TIME:9168
;Filament used: 8.2527m
;Layer height: 0.2
;MINX:58.739
;MINY:74.219
;MINZ:0.3
;MAXX:131.821
;MAXY:117.086
;MAXZ:20.1
;Generated with Cura_SteamEngine 4.13.1
M140 S60
M105
M190 S60
M104 S185
M105
M109 S185
M82 ;absolute extrusion mode
G28 ;Home
G1 Z15.0 F6000 ;Move the platform down 15mm
;Prime the extruder
G92 E0
G1 F200 E3
G92 E0
G92 E0
G92 E0
G1 F1500 E-6.5
;LAYER_COUNT:100
;LAYER:0
M107
;MESH:Body1.stl(2)
G0 F3600 X95.454 Y89.419 Z0.3
;TYPE:WALL-INNER
G1 F1500 E0
G1 F1200 X95.398 Y90.613 E0.05963
G1 X95.324 Y91.16 E0.08717
G1 X95.192 Y91.731 E0.11641
G1 X95.016 Y92.274 E0.14489
G1 X94.788 Y92.806 E0.17377
G1 X94.522 Y93.299 E0.20171
G1 X94.197 Y93.791 E0.23113
G1 X93.847 Y94.229 E0.2591
G1 X93.44 Y94.653 E0.28842
G1 X93.02 Y95.019 E0.31622
G1 X92.539 Y95.368 E0.34587
G1 X92.052 Y95.658 E0.37414
G1 X91.537 Y95.904 E0.40262
G1 X91.002 Y96.105 E0.43113
G1 X90.445 Y96.257 E0.45994
G1 X89.864 Y96.362 E0.48939
G1 X89.313 Y96.411 E0.51699
G1 X88.725 Y96.41 E0.54633
G1 X88.164 Y96.36 E0.57443
G1 X87.606 Y96.257 E0.60273
G1 X87.031 Y96.098 E0.6325
G1 X86.505 Y95.9 E0.66054
G1 X85.992 Y95.652 E0.68897
G1 X85.495 Y95.354 E0.71788
G1 X85.027 Y95.013 E0.74677
G1 X84.596 Y94.634 E0.7754
G1 X84.204 Y94.224 E0.8037
G1 X83.845 Y93.772 E0.8325
G1 X83.524 Y93.285 E0.8616
G1 X83.26 Y92.79 E0.88959
G1 X83.034 Y92.261 E0.91828
G1 X82.856 Y91.708 E0.94727
G1 X82.729 Y91.148 E0.97592
G1 X82.656 Y90.605 E1.00325
G1 X82.6 Y89.419 E1.06249
G1 X72.627 Y89.419 E1.56004
G1 X72.627 Y74.619 E2.29842
G1 X105.427 Y74.619 E3.93481
G1 X105.427 Y89.419 E4.67319
G1 X95.454 Y89.419 E5.17074
G0 F3600 X95.836 Y89.819
;TYPE:WALL-OUTER
G1 F1200 X95.798 Y90.641 E5.2118
G1 X95.717 Y91.238 E5.24186
G1 X95.578 Y91.839 E5.27263
G1 X95.394 Y92.407 E5.30242
G1 X95.148 Y92.979 E5.33348
G1 X94.865 Y93.506 E5.36333
G1 X94.519 Y94.028 E5.39457
G1 X94.144 Y94.497 E5.42453
G1 X93.718 Y94.941 E5.45523
G1 X93.265 Y95.336 E5.48521
G1 X92.762 Y95.701 E5.51622
G1 X92.237 Y96.013 E5.54669
G1 X91.694 Y96.273 E5.57672
G1 X91.125 Y96.486 E5.60703
G1 X90.533 Y96.648 E5.63765
G1 X89.926 Y96.758 E5.66843
G1 X89.325 Y96.811 E5.69853
G1 X88.711 Y96.81 E5.72916
G1 X88.111 Y96.756 E5.75922
G1 X87.505 Y96.645 E5.78996
G1 X86.916 Y96.482 E5.82045
G1 X86.346 Y96.267 E5.85084
G1 X85.803 Y96.005 E5.88092
G1 X85.274 Y95.688 E5.91168
G1 X84.774 Y95.323 E5.94257
G1 X84.325 Y94.929 E5.97237
G1 X83.9 Y94.484 E6.00307
G1 X83.521 Y94.007 E6.03347
G1 X83.181 Y93.491 E6.0643
G1 X82.9 Y92.965 E6.09405
G1 X82.658 Y92.399 E6.12476
G1 X82.471 Y91.82 E6.15511
G1 X82.336 Y91.223 E6.18565
G1 X82.256 Y90.632 E6.2154
G1 X82.218 Y89.819 E6.25601
G1 X72.227 Y89.819 E6.75446
G1 X72.227 Y74.219 E7.53275
G1 X105.827 Y74.219 E9.20906
G1 X105.827 Y89.819 E9.98735
G1 X95.836 Y89.819 E10.4858
G0 F3600 X95.827 Y90.019
G0 X95.008 Y90.588
;TYPE:SKIN
G1 F1200 X94.942 Y91.084 E10.51076
G1 X94.815 Y91.629 E10.53868
G1 X94.655 Y92.124 E10.56464
G1 X94.431 Y92.645 E10.59293
G1 X94.191 Y93.091 E10.6182
G1 X93.877 Y93.568 E10.64669
G1 X93.549 Y93.978 E10.67288
G1 X93.178 Y94.365 E10.69963
G1 X92.776 Y94.715 E10.72622
G1 X92.324 Y95.042 E10.75406
G1 X91.863 Y95.317 E10.78084
G1 X91.394 Y95.541 E10.80677
G1 X90.882 Y95.734 E10.83407
G1 X90.364 Y95.875 E10.86085
G1 X89.803 Y95.976 E10.88929
G1 X89.3 Y96.021 E10.91448
G1 X88.738 Y96.02 E10.94252
G1 X88.227 Y95.974 E10.96812
G1 X87.69 Y95.875 E10.99536
G1 X87.149 Y95.726 E11.02336
G1 X86.66 Y95.542 E11.04942
G1 X86.185 Y95.312 E11.07575
G1 X85.712 Y95.029 E11.10325
G1 X85.257 Y94.697 E11.13135
G1 X84.864 Y94.35 E11.15751
G1 X84.5 Y93.969 E11.1838
G1 X84.164 Y93.547 E11.21071
G1 X83.85 Y93.07 E11.2392
G1 X83.617 Y92.631 E11.26399
G1 X83.395 Y92.112 E11.29216
G1 X83.231 Y91.601 E11.31893
G1 X83.113 Y91.078 E11.34568
G1 X83.046 Y90.58 E11.37075
G1 X82.972 Y89.029 E11.44822
G1 X73.017 Y89.029 E11.94487
G1 X73.017 Y75.009 E12.64433
G1 X105.037 Y75.009 E14.24182
G1 X105.037 Y89.029 E14.94128
G1 X95.082 Y89.029 E15.43794
G1 X95.008 Y90.588 E15.5158
G0 F3600 X95.385 Y89.511
G0 X104.856 Y75.44
G1 F1200 X104.604 Y75.188 E15.53358
G0 F3600 X104.038 Y75.188
G1 F1200 X104.856 Y76.006 E15.5913
G0 F3600 X104.856 Y76.571
G1 F1200 X103.473 Y75.188 E15.68888
G0 F3600 X102.907 Y75.188
G1 F1200 X104.856 Y77.137 E15.82639
G0 F3600 X104.856 Y77.703
G1 F1200 X102.341 Y75.188 E16.00383
G0 F3600 X101.776 Y75.188
G1 F1200 X104.856 Y78.268 E16.22115
G0 F3600 X104.856 Y78.834
G1 F1200 X101.21 Y75.188 E16.47839
G0 F3600 X100.644 Y75.188
G1 F1200 X104.856 Y79.4 E16.77557
G0 F3600 X104.856 Y79.965
G1 F1200 X100.078 Y75.188 E17.11265
G0 F3600 X99.513 Y75.188
G1 F1200 X104.856 Y80.531 E17.48963
G0 F3600 X104.856 Y81.097
G1 F1200 X98.947 Y75.188 E17.90654
G0 F3600 X98.381 Y75.188
G1 F1200 X104.856 Y81.663 E18.36338
G0 F3600 X104.856 Y82.228
G1 F1200 X97.816 Y75.188 E18.86009
G0 F3600 X97.25 Y75.188
G1 F1200 X104.856 Y82.794 E19.39674
G0 F3600 X104.856 Y83.36
G1 F1200 X96.684 Y75.188 E19.97332
G0 F3600 X96.119 Y75.188
G1 F1200 X104.856 Y83.925 E20.58976
G0 F3600 X104.856 Y84.491
G1 F1200 X95.553 Y75.188 E21.24614
G0 F3600 X94.987 Y75.188
G1 F1200 X104.856 Y85.057 E21.94245
G0 F3600 X104.856 Y85.622
G1 F1200 X94.422 Y75.188 E22.67862
G0 F3600 X93.856 Y75.188
G1 F1200 X104.856 Y86.188 E23.45473
G0 F3600 X104.856 Y86.754
G1 F1200 X93.29 Y75.188 E24.27078
G0 F3600 X92.725 Y75.188
G1 F1200 X104.856 Y87.319 E25.12668
G0 F3600 X104.856 Y87.885
G1 F1200 X92.159 Y75.188 E26.02253
G0 F3600 X91.593 Y75.188
G1 F1200 X104.856 Y88.451 E26.9583
G0 F3600 X104.687 Y88.848
G1 F1200 X91.027 Y75.188 E27.92209
G0 F3600 X90.462 Y75.188
G1 F1200 X104.122 Y88.848 E28.88588
G0 F3600 X103.556 Y88.848
G1 F1200 X89.896 Y75.188 E29.84966
G0 F3600 X89.33 Y75.188
G1 F1200 X102.99 Y88.848 E30.81345
G0 F3600 X102.425 Y88.848
G1 F1200 X88.765 Y75.188 E31.77724
G0 F3600 X88.199 Y75.188
G1 F1200 X101.859 Y88.848 E32.74102
G0 F3600 X101.293 Y88.848
G1 F1200 X87.633 Y75.188 E33.70481
G0 F3600 X87.068 Y75.188
G1 F1200 X100.728 Y88.848 E34.6686
G0 F3600 X100.162 Y88.848
G1 F1200 X86.502 Y75.188 E35.63238
G0 F3600 X85.936 Y75.188
G1 F1200 X99.596 Y88.848 E36.59617
G0 F3600 X99.031 Y88.848
G1 F1200 X85.371 Y75.188 E37.55996
G0 F3600 X84.805 Y75.188
G1 F1200 X98.465 Y88.848 E38.52374
G0 F3600 X97.899 Y88.848
G1 F1200 X84.239 Y75.188 E39.48753
G0 F3600 X83.674 Y75.188
G1 F1200 X97.333 Y88.848 E40.45128
G0 F3600 X96.768 Y88.848
G1 F1200 X83.108 Y75.188 E41.41507
G0 F3600 X82.542 Y75.188
G1 F1200 X96.202 Y88.848 E42.37885
G0 F3600 X95.636 Y88.848
G1 F1200 X81.977 Y75.188 E43.34261
G0 F3600 X81.411 Y75.188
G1 F1200 X95.071 Y88.848 E44.30639
G0 F3600 X94.891 Y89.234
G1 F1200 X80.845 Y75.188 E45.29741
G0 F3600 X80.279 Y75.188
G1 F1200 X94.865 Y89.774 E46.32654
G0 F3600 X94.839 Y90.314
G1 F1200 X79.714 Y75.188 E47.39372
G0 F3600 X79.148 Y75.188
G1 F1200 X94.794 Y90.834 E48.49763
G0 F3600 X94.704 Y91.31
G1 F1200 X78.582 Y75.188 E49.63512
G0 F3600 X78.017 Y75.188
G1 F1200 X94.584 Y91.756 E50.80405
G0 F3600 X94.436 Y92.174
G1 F1200 X77.451 Y75.188 E52.00247
G0 F3600 X76.885 Y75.188
G1 F1200 X94.266 Y92.569 E53.22879
G0 F3600 X94.068 Y92.937
G1 F1200 X76.32 Y75.188 E54.48105
G0 F3600 X75.754 Y75.188
G1 F1200 X93.849 Y93.283 E55.75775
G0 F3600 X93.611 Y93.611
G1 F1200 X75.188 Y75.188 E57.05759
G0 F3600 X74.623 Y75.188
G1 F1200 X93.355 Y93.92 E58.37923
G0 F3600 X93.078 Y94.209
G1 F1200 X74.057 Y75.188 E59.72127
G0 F3600 X73.491 Y75.188
G1 F1200 X92.777 Y94.474 E61.082
G0 F3600 X92.458 Y94.721
G1 F1200 X73.196 Y75.459 E62.44104
G0 F3600 X73.196 Y76.025
G1 F1200 X92.122 Y94.951 E63.77637
G0 F3600 X91.768 Y95.162
G1 F1200 X73.196 Y76.59 E65.08672
G0 F3600 X73.196 Y77.156
G1 F1200 X91.385 Y95.344 E66.37002
G0 F3600 X90.978 Y95.503
G1 F1200 X73.196 Y77.722 E67.6246
G0 F3600 X73.196 Y78.288
G1 F1200 X90.546 Y95.637 E68.8487
G0 F3600 X90.084 Y95.741
G1 F1200 X73.196 Y78.853 E70.04024
G0 F3600 X73.196 Y79.419
G1 F1200 X82.625 Y88.847 E70.70547
G0 F3600 X82.059 Y88.847
G1 F1200 X73.196 Y79.985 E71.33077
G0 F3600 X73.196 Y80.55
G1 F1200 X81.494 Y88.847 E71.9162
G0 F3600 X80.928 Y88.847
G1 F1200 X73.196 Y81.116 E72.4617
G0 F3600 X73.196 Y81.682
G1 F1200 X80.362 Y88.847 E72.96727
G0 F3600 X79.797 Y88.847
G1 F1200 X73.196 Y82.247 E73.43297
G0 F3600 X73.196 Y82.813
G1 F1200 X79.231 Y88.847 E73.85873
G0 F3600 X78.665 Y88.847
G1 F1200 X73.196 Y83.379 E74.24457
G0 F3600 X73.196 Y83.944
G1 F1200 X78.099 Y88.847 E74.5905
G0 F3600 X77.534 Y88.847
G1 F1200 X73.196 Y84.51 E74.89653
G0 F3600 X73.196 Y85.076
G1 F1200 X76.968 Y88.847 E75.16263
G0 F3600 X76.402 Y88.847
G1 F1200 X73.196 Y85.641 E75.38883
G0 F3600 X73.196 Y86.207
G1 F1200 X75.837 Y88.847 E75.57514
G0 F3600 X75.271 Y88.847
G1 F1200 X73.196 Y86.773 E75.7215
G0 F3600 X73.196 Y87.339
G1 F1200 X74.705 Y88.847 E75.82794
G0 F3600 X74.14 Y88.847
G1 F1200 X73.196 Y87.904 E75.8945
G0 F3600 X73.196 Y88.47
G1 F1200 X73.574 Y88.847 E75.92114
G0 F3600 X83.169 Y89.391
G1 F1200 X89.591 Y95.813 E76.37425
G0 F3600 X89.051 Y95.839
G1 F1200 X83.197 Y89.985 E76.78728
G0 F3600 X83.227 Y90.581
G1 F1200 X88.459 Y95.812 E77.15639
G0 F3600 X87.789 Y95.709
G1 F1200 X83.338 Y91.257 E77.47047
G1 X83.268 Y91.187
G0 F3600 X83.563 Y92.048
G1 F1200 X86.986 Y95.471 E77.71198
G1 X87.056 Y95.541
G0 F3600 X85.849 Y94.9
G1 F1200 X84.155 Y93.206 E77.8315
G1 X84.085 Y93.136
G1 F1500 E71.3315
;MESH:Body1.stl(1)
G0 F3600 X84.219 Y94.211
G0 X83.292 Y95.098
G0 X82.914 Y98.341
G0 X81.692 Y98.735
G0 X81.897 Y101.093
G1 F1500 E77.8315
G0 F3600 X81.966 Y101.021
;TYPE:WALL-INNER
G1 F1200 X91.939 Y101.021 E78.32905
G1 X91.939 Y115.821 E79.06743
G1 X59.139 Y115.821 E80.70383
G1 X59.139 Y101.021 E81.4422
G1 X69.112 Y101.021 E81.93976
G1 X69.168 Y99.82 E81.99974
G1 X69.242 Y99.28 E82.02693
G1 X69.374 Y98.707 E82.05627
G1 X69.55 Y98.165 E82.0847
G1 X69.778 Y97.635 E82.11348
G1 X70.046 Y97.137 E82.1417
G1 X70.37 Y96.648 E82.17096
G1 X70.725 Y96.204 E82.19932
G1 X71.123 Y95.789 E82.22801
G1 X71.562 Y95.407 E82.25704
G1 X72.013 Y95.081 E82.28481
G1 X72.516 Y94.781 E82.31403
G1 X73.035 Y94.533 E82.34272
G1 X73.573 Y94.331 E82.37139
G1 X74.107 Y94.183 E82.39904
G1 X74.7 Y94.077 E82.42909
G1 X75.253 Y94.028 E82.45679
G1 X75.841 Y94.029 E82.48613
G1 X76.392 Y94.079 E82.51373
G1 X76.979 Y94.186 E82.5435
G1 X77.528 Y94.338 E82.57192
G1 X78.06 Y94.539 E82.60029
G1 X78.57 Y94.786 E82.62856
G1 X79.077 Y95.09 E82.65805
G1 X79.534 Y95.422 E82.68623
G1 X79.97 Y95.805 E82.71519
G1 X80.362 Y96.215 E82.74349
G1 X80.721 Y96.667 E82.77229
G1 X81.038 Y97.149 E82.80107
G1 X81.305 Y97.648 E82.8293
G1 X81.534 Y98.182 E82.85829
G1 X81.711 Y98.73 E82.88702
G1 X81.836 Y99.287 E82.9155
G1 X81.912 Y99.832 E82.94295
G1 X81.966 Y101.021 E83.00233
G0 F3600 X82.348 Y100.621
;TYPE:WALL-OUTER
G1 F1200 X92.339 Y100.621 E83.50079
G1 X92.339 Y116.221 E84.27907
G1 X58.739 Y116.221 E85.95539
G1 X58.739 Y100.621 E86.73367
G1 X68.73 Y100.621 E87.23213
G1 X68.768 Y99.793 E87.27348
G1 X68.849 Y99.201 E87.30329
G1 X68.988 Y98.6 E87.33406
G1 X69.172 Y98.032 E87.36385
G1 X69.418 Y97.461 E87.39487
G1 X69.702 Y96.933 E87.42478
G1 X70.049 Y96.41 E87.45609
G1 X70.422 Y95.942 E87.48595
G1 X70.848 Y95.498 E87.51665
G1 X71.306 Y95.099 E87.54695
G1 X71.8 Y94.742 E87.57736
G1 X72.325 Y94.429 E87.60786
G1 X72.878 Y94.164 E87.63845
G1 X73.442 Y93.953 E87.66849
G1 X74.026 Y93.791 E87.69873
G1 X74.638 Y93.681 E87.72975
G1 X75.241 Y93.628 E87.75995
G1 X75.855 Y93.629 E87.79058
G1 X76.456 Y93.683 E87.82069
G1 X77.059 Y93.793 E87.85127
G1 X77.653 Y93.958 E87.88202
G1 X78.22 Y94.172 E87.91226
G1 X78.763 Y94.435 E87.94236
G1 X79.292 Y94.752 E87.97313
G1 X79.792 Y95.116 E88.00398
G1 X80.241 Y95.51 E88.03379
G1 X80.666 Y95.955 E88.06449
G1 X81.045 Y96.432 E88.09488
G1 X81.385 Y96.948 E88.12571
G1 X81.665 Y97.471 E88.15531
G1 X81.91 Y98.044 E88.1864
G1 X82.096 Y98.619 E88.21655
G1 X82.23 Y99.216 E88.24707
G1 X82.311 Y99.802 E88.27659
G1 X82.348 Y100.621 E88.31749
G0 F3600 X82.548 Y100.621
G0 X82.548 Y101.121
G0 X81.594 Y101.411
;TYPE:SKIN
G1 F1200 X91.549 Y101.411 E88.81415
G1 X91.549 Y115.431 E89.51361
G1 X59.529 Y115.431 E91.11109
G1 X59.529 Y101.411 E91.81055
G1 X69.484 Y101.411 E92.30721
G1 X69.558 Y99.838 E92.38577
G1 X69.626 Y99.348 E92.41045
G1 X69.751 Y98.81 E92.43801
G1 X69.917 Y98.298 E92.46486
G1 X70.131 Y97.802 E92.49181
G1 X70.381 Y97.337 E92.51815
G1 X70.684 Y96.879 E92.54555
G1 X71.022 Y96.457 E92.57252
G1 X71.391 Y96.072 E92.59913
G1 X71.806 Y95.711 E92.62657
G1 X72.228 Y95.407 E92.65252
G1 X72.705 Y95.122 E92.68024
G1 X73.178 Y94.896 E92.70639
G1 X73.691 Y94.703 E92.73374
G1 X74.195 Y94.563 E92.75983
G1 X74.757 Y94.463 E92.78831
G1 X75.266 Y94.418 E92.81381
G1 X75.828 Y94.419 E92.84184
G1 X76.331 Y94.465 E92.86704
G1 X76.895 Y94.568 E92.89565
G1 X77.406 Y94.709 E92.92209
G1 X77.908 Y94.898 E92.94886
G1 X78.377 Y95.126 E92.97487
G1 X78.86 Y95.415 E93.00295
G1 X79.295 Y95.732 E93.02981
G1 X79.702 Y96.09 E93.05685
G1 X80.063 Y96.466 E93.08285
G1 X80.405 Y96.897 E93.1103
G1 X80.703 Y97.349 E93.13731
G1 X80.949 Y97.81 E93.16338
G1 X81.175 Y98.336 E93.19195
G1 X81.335 Y98.832 E93.21795
G1 X81.452 Y99.355 E93.24468
G1 X81.522 Y99.856 E93.26992
G1 X81.594 Y101.411 E93.34758
G0 F3600 X91.368 Y102.116
G1 F1200 X90.842 Y101.59 E93.3847
G0 F3600 X90.277 Y101.59
G1 F1200 X91.368 Y102.682 E93.46171
G0 F3600 X91.368 Y103.248
G1 F1200 X89.711 Y101.59 E93.57865
G0 F3600 X89.145 Y101.59
G1 F1200 X91.368 Y103.813 E93.7355
G0 F3600 X91.368 Y104.379
G1 F1200 X88.579 Y101.59 E93.93228
G0 F3600 X88.014 Y101.59
G1 F1200 X91.368 Y104.945 E94.16896
G0 F3600 X91.368 Y105.51
G1 F1200 X87.448 Y101.59 E94.44553
G0 F3600 X86.882 Y101.59
G1 F1200 X91.368 Y106.076 E94.76204
G0 F3600 X91.368 Y106.642
G1 F1200 X86.317 Y101.59 E95.11845
G0 F3600 X85.751 Y101.59
G1 F1200 X91.368 Y107.207 E95.51476
G0 F3600 X91.368 Y107.773
G1 F1200 X85.185 Y101.59 E95.95101
G0 F3600 X84.62 Y101.59
G1 F1200 X91.368 Y108.339 E96.42715
G0 F3600 X91.368 Y108.905
G1 F1200 X84.054 Y101.59 E96.94323
G0 F3600 X83.488 Y101.59
G1 F1200 X91.368 Y109.47 E97.49921
G0 F3600 X91.368 Y110.036
G1 F1200 X82.923 Y101.59 E98.09508
G0 F3600 X82.357 Y101.59
G1 F1200 X91.368 Y110.602 E98.73089
G0 F3600 X91.368 Y111.167
G1 F1200 X81.791 Y101.59 E99.4066
G0 F3600 X81.404 Y101.203
G1 F1200 X74.836 Y94.635 E99.87001
G0 F3600 X74.352 Y94.716
G1 F1200 X91.368 Y111.733 E101.07061
G0 F3600 X91.368 Y112.299
G1 F1200 X73.901 Y94.831 E102.30304
G0 F3600 X73.479 Y94.975
G1 F1200 X91.368 Y112.864 E103.56521
G0 F3600 X91.368 Y113.43
G1 F1200 X73.08 Y95.141 E104.85556
G0 F3600 X72.704 Y95.332
G1 F1200 X91.368 Y113.996 E106.1724
G0 F3600 X91.368 Y114.561
G1 F1200 X72.35 Y95.543 E107.51423
G0 F3600 X72.019 Y95.778
G1 F1200 X91.368 Y115.127 E108.8794
G0 F3600 X90.926 Y115.25
G1 F1200 X71.709 Y96.033 E110.23527
G0 F3600 X71.414 Y96.305
G1 F1200 X90.36 Y115.25 E111.57197
G0 F3600 X89.794 Y115.25
G1 F1200 X71.139 Y96.595 E112.88819
G0 F3600 X70.888 Y96.909
G1 F1200 X89.229 Y115.25 E114.18224
G0 F3600 X88.663 Y115.25
G1 F1200 X70.656 Y97.244 E115.4527
G0 F3600 X70.444 Y97.597
G1 F1200 X88.097 Y115.25 E116.69821
G0 F3600 X87.532 Y115.25
G1 F1200 X70.253 Y97.971 E117.91734
G0 F3600 X70.082 Y98.367
G1 F1200 X86.966 Y115.25 E119.10856
G0 F3600 X86.4 Y115.25
G1 F1200 X69.944 Y98.794 E120.26962
G0 F3600 X69.833 Y99.248
G1 F1200 X85.834 Y115.25 E121.39861
G0 F3600 X85.269 Y115.25
G1 F1200 X69.753 Y99.734 E122.49335
G0 F3600 X69.717 Y100.264
G1 F1200 X84.703 Y115.25 E123.55069
G0 F3600 X84.137 Y115.25
G1 F1200 X69.692 Y100.805 E124.56987
G0 F3600 X69.666 Y101.345
G1 F1200 X83.572 Y115.25 E125.55097
G0 F3600 X83.006 Y115.25
