;FLAVOR:Marlin
;TIME:1674
;Filament used: 2.1706m
;Layer height: 0.2
;MINX:74.2
;MINY:86.335
;MINZ:0.3
;MAXX:125.8
;MAXY:112.799
;MAXZ:14.9
;TARGET_MACHINE.NAME:Unknown
;Generated with Cura_SteamEngine 5.6.0
M140 S60
M105
M190 S60
M104 S180
M105
M109 S180
M82 ;absolute extrusion mode
G28 ;Home
G1 Z15.0 F6000 ;Move the platform down 15mm
;Prime the extruder
G92 E0
G1 F200 E3
G92 E0
G92 E0
G92 E0
G1 F1500 E-6.5
;LAYER_COUNT:74
;LAYER:0
M107
;MESH:Krepez_3mm_r.stl
G0 F3600 X112.455 Y92.747 Z0.3
;TYPE:WALL-INNER
G1 F1500 E0
G1 F1800 X112.598 Y92.553 E0.01202
G1 X112.919 Y92.4 E0.02976
G1 X125.4 Y92.4 E0.65244
G1 X125.4 Y87.6 E0.89192
G1 X74.6 Y87.6 E3.42634
G1 X74.6 Y92.4 E3.66581
G1 X87.104 Y92.4 E4.28964
G1 X87.289 Y92.473 E4.29956
G1 X87.487 Y92.648 E4.31275
G1 X87.599 Y92.884 E4.32578
G1 X87.6 Y99.988 E4.6802
G1 X87.635 Y100.922 E4.72683
G1 X87.74 Y101.849 E4.77337
G1 X87.91 Y102.754 E4.81931
G1 X88.15 Y103.651 E4.86564
G1 X88.455 Y104.525 E4.91182
G1 X88.827 Y105.375 E4.95811
G1 X89.26 Y106.196 E5.00442
G1 X89.752 Y106.98 E5.0506
G1 X90.308 Y107.732 E5.09726
G1 X90.909 Y108.43 E5.14321
G1 X91.569 Y109.09 E5.18977
G1 X92.267 Y109.691 E5.23573
G1 X93.012 Y110.242 E5.28196
G1 X93.797 Y110.736 E5.32823
G1 X94.623 Y111.171 E5.37481
G1 X95.475 Y111.543 E5.42119
G1 X96.343 Y111.848 E5.46709
G1 X97.247 Y112.091 E5.51379
G1 X98.148 Y112.26 E5.55952
G1 X99.076 Y112.365 E5.60612
G1 X100 Y112.399 E5.65225
G1 X100.923 Y112.365 E5.69833
G1 X101.851 Y112.26 E5.74492
G1 X102.763 Y112.088 E5.79122
G1 X103.657 Y111.848 E5.8374
G1 X104.525 Y111.544 E5.88329
G1 X105.377 Y111.172 E5.92967
G1 X106.202 Y110.735 E5.97625
G1 X106.988 Y110.243 E6.02251
G1 X107.733 Y109.691 E6.06877
G1 X108.431 Y109.09 E6.11472
G1 X109.091 Y108.43 E6.16129
G1 X109.692 Y107.732 E6.20724
G1 X110.247 Y106.98 E6.25387
G1 X110.74 Y106.196 E6.30007
G1 X111.172 Y105.375 E6.34636
G1 X111.545 Y104.525 E6.39267
G1 X111.85 Y103.651 E6.43885
G1 X112.093 Y102.744 E6.4857
G1 X112.26 Y101.85 E6.53107
G1 X112.365 Y100.922 E6.57766
G1 X112.4 Y99.993 E6.62405
G1 X112.4 Y92.912 E6.97732
G1 X112.455 Y92.747 E6.98599
G0 F3600 X112.1 Y92.747
G0 X107.016 Y103.498
G0 X106.615 Y104.208
G0 X105.62 Y105.467
G0 X105.028 Y106.015
G0 X104.384 Y106.501
G0 X103.691 Y106.918
G0 X102.96 Y107.26
G0 X102.199 Y107.526
G0 X99.76 Y107.894
G0 X99.783 Y107.597
G1 F1800 X99.034 Y107.539 E7.02347
G1 X98.271 Y107.401 E7.06216
G1 X97.509 Y107.182 E7.10171
G1 X96.746 Y106.869 E7.14286
G1 X96.071 Y106.506 E7.18109
G1 X95.448 Y106.086 E7.21858
G1 X94.836 Y105.577 E7.25829
G1 X94.32 Y105.05 E7.29509
G1 X93.813 Y104.414 E7.33567
G1 X93.395 Y103.76 E7.37439
G1 X93.041 Y103.054 E7.41379
G1 X92.767 Y102.335 E7.45218
G1 X92.569 Y101.593 E7.49049
G1 X92.441 Y100.796 E7.53077
G1 X92.4 Y99.976 E7.57173
G1 X92.437 Y99.244 E7.60829
G1 X92.567 Y98.418 E7.65001
G1 X92.769 Y97.66 E7.68915
G1 X93.045 Y96.939 E7.72766
G1 X93.37 Y96.286 E7.76405
G1 X93.816 Y95.582 E7.80563
G1 X94.284 Y94.99 E7.84328
G1 X94.858 Y94.404 E7.88421
G1 X95.458 Y93.907 E7.92308
G1 X96.111 Y93.47 E7.96228
G1 X96.797 Y93.107 E8.001
G1 X97.527 Y92.812 E8.04028
G1 X98.272 Y92.599 E8.07894
G1 X99.047 Y92.46 E8.11822
G1 X99.768 Y92.403 E8.1543
G1 X100.613 Y92.425 E8.19647
G1 X101.381 Y92.527 E8.23512
G1 X102.099 Y92.696 E8.27192
G1 X102.889 Y92.971 E8.31366
G1 X103.597 Y93.305 E8.35271
G1 X104.264 Y93.709 E8.39162
G1 X104.894 Y94.185 E8.43101
G1 X105.434 Y94.687 E8.46779
G1 X105.958 Y95.281 E8.50731
G1 X106.395 Y95.893 E8.54483
G1 X106.783 Y96.572 E8.58385
G1 X107.12 Y97.342 E8.62578
G1 X107.357 Y98.089 E8.66488
G1 X107.504 Y98.787 E8.70047
G1 X107.589 Y99.576 E8.74006
G1 X107.592 Y100.371 E8.77972
G1 X107.512 Y101.165 E8.81953
G1 X107.352 Y101.934 E8.85872
G1 X107.121 Y102.657 E8.89659
G1 X106.793 Y103.408 E8.93747
G1 X106.418 Y104.073 E8.97556
G1 X105.979 Y104.692 E9.01342
G1 X105.468 Y105.277 E9.05217
G1 X104.882 Y105.826 E9.09223
G1 X104.269 Y106.288 E9.13053
G1 X103.581 Y106.706 E9.17069
G1 X102.882 Y107.033 E9.20919
G1 X102.125 Y107.297 E9.24919
G1 X101.369 Y107.477 E9.28796
G1 X100.618 Y107.575 E9.32575
G1 X99.783 Y107.597 E9.36742
G0 F3600 X99.814 Y107.198
;TYPE:WALL-OUTER
G1 F1800 X99.066 Y107.139 E9.40485
G1 X98.339 Y107.006 E9.44173
G1 X97.632 Y106.801 E9.47845
G1 X96.934 Y106.516 E9.51607
G1 X96.294 Y106.174 E9.55227
G1 X95.693 Y105.77 E9.5884
G1 X95.102 Y105.278 E9.62676
G1 X94.593 Y104.755 E9.66317
G1 X94.127 Y104.165 E9.70068
G1 X93.738 Y103.554 E9.73682
G1 X93.407 Y102.894 E9.77366
G1 X93.14 Y102.188 E9.81131
G1 X92.952 Y101.471 E9.84829
G1 X92.838 Y100.739 E9.88525
G1 X92.8 Y99.996 E9.92237
G1 X92.839 Y99.243 E9.95999
G1 X92.954 Y98.52 E9.99651
G1 X93.143 Y97.802 E10.03355
G1 X93.403 Y97.117 E10.07011
G1 X93.728 Y96.464 E10.1065
G1 X94.13 Y95.83 E10.14395
G1 X94.584 Y95.254 E10.18054
G1 X95.114 Y94.711 E10.2184
G1 X95.665 Y94.251 E10.25421
G1 X96.299 Y93.823 E10.29237
G1 X96.949 Y93.477 E10.32911
G1 X97.639 Y93.196 E10.36627
G1 X98.325 Y92.997 E10.40191
G1 X99.06 Y92.861 E10.4392
G1 X99.8 Y92.802 E10.47624
G1 X100.562 Y92.822 E10.51427
G1 X101.269 Y92.913 E10.54983
G1 X102.007 Y93.086 E10.58765
G1 X102.72 Y93.333 E10.62529
G1 X103.373 Y93.638 E10.66125
G1 X104.024 Y94.029 E10.69914
G1 X104.622 Y94.478 E10.73644
G1 X105.149 Y94.968 E10.77235
G1 X105.655 Y95.543 E10.81056
G1 X106.08 Y96.142 E10.8472
G1 X106.444 Y96.787 E10.88415
G1 X106.732 Y97.445 E10.91999
G1 X106.96 Y98.151 E10.957
G1 X107.112 Y98.869 E10.99361
G1 X107.191 Y99.617 E11.03114
G1 X107.192 Y100.356 E11.06801
G1 X107.116 Y101.11 E11.10582
G1 X106.962 Y101.841 E11.14309
G1 X106.743 Y102.525 E11.17892
G1 X106.436 Y103.227 E11.21714
G1 X106.073 Y103.869 E11.25394
G1 X105.657 Y104.454 E11.28975
G1 X105.153 Y105.028 E11.32786
G1 X104.611 Y105.53 E11.36472
G1 X104.015 Y105.977 E11.40189
G1 X103.394 Y106.352 E11.43808
G1 X102.707 Y106.671 E11.47587
G1 X102.034 Y106.907 E11.51145
G1 X101.283 Y107.085 E11.54995
G1 X100.556 Y107.178 E11.58652
G1 X99.814 Y107.198 E11.62355
G0 F3600 X99.615 Y107.183
G0 X99.561 Y107.879
G0 X101.413 Y107.713
G0 X102.199 Y107.526
G0 X102.96 Y107.26
G0 X103.691 Y106.918
G0 X104.384 Y106.501
G0 X105.028 Y106.015
G0 X105.62 Y105.467
G0 X106.153 Y104.858
G0 X106.729 Y104.007
G0 X112.1 Y92.948
G0 X112.806 Y92.948
G1 F1800 X112.837 Y92.882 E11.62719
G1 X112.965 Y92.802 E11.63472
G1 X125.8 Y92.8 E12.27506
G1 X125.8 Y87.2 E12.55445
G1 X74.2 Y87.2 E15.12878
G1 X74.2 Y92.8 E15.40817
G1 X87.051 Y92.806 E16.0493
G1 X87.194 Y92.948 E16.05936
G1 X87.2 Y99.996 E16.41098
G1 X87.236 Y100.952 E16.45871
G1 X87.344 Y101.909 E16.50676
G1 X87.52 Y102.842 E16.55413
G1 X87.767 Y103.769 E16.60199
G1 X88.083 Y104.671 E16.64967
G1 X88.467 Y105.549 E16.69748
G1 X88.913 Y106.396 E16.74524
G1 X89.422 Y107.206 E16.79297
G1 X89.995 Y107.982 E16.84109
G1 X90.615 Y108.702 E16.8885
G1 X91.297 Y109.384 E16.93662
G1 X92.017 Y110.004 E16.98402
G1 X92.786 Y110.573 E17.03175
G1 X93.597 Y111.082 E17.07952
G1 X94.449 Y111.532 E17.12759
G1 X95.329 Y111.916 E17.17549
G1 X96.225 Y112.23 E17.22286
G1 X97.158 Y112.481 E17.27106
G1 X98.089 Y112.656 E17.31832
G1 X99.046 Y112.764 E17.36637
G1 X100 Y112.799 E17.41399
G1 X100.953 Y112.764 E17.46157
G1 X101.911 Y112.656 E17.50967
G1 X102.852 Y112.478 E17.55745
G1 X103.775 Y112.23 E17.60513
G1 X104.671 Y111.916 E17.6525
G1 X105.551 Y111.532 E17.7004
G1 X106.402 Y111.082 E17.74843
G1 X107.214 Y110.573 E17.79624
G1 X107.983 Y110.004 E17.84396
G1 X108.703 Y109.384 E17.89137
G1 X109.385 Y108.702 E17.93949
G1 X110.005 Y107.982 E17.98689
G1 X110.578 Y107.206 E18.03502
G1 X111.087 Y106.396 E18.08274
G1 X111.533 Y105.549 E18.1305
G1 X111.917 Y104.671 E18.17831
G1 X112.233 Y103.769 E18.22599
G1 X112.483 Y102.832 E18.27438
G1 X112.656 Y101.909 E18.32123
G1 X112.764 Y100.952 E18.36927
G1 X112.8 Y100.001 E18.41675
G1 X112.806 Y92.948 E18.76863
G0 F3600 X112.837 Y92.882
G0 X112.946 Y92.814
G0 X112.946 Y92.1
G0 X87.684 Y92.1
G0 X87.684 Y92.301
;TYPE:SKIN
G1 F1800 X87.206 Y92.02 E18.79629
G1 X74.98 Y92.02 E19.40625
G1 X74.98 Y87.98 E19.60781
G1 X125.02 Y87.98 E22.10431
G1 X125.02 Y92.02 E22.30587
G1 X112.815 Y92.022 E22.91478
G1 X112.385 Y92.241 E22.93885
G1 X112.13 Y92.555 E22.95903
G1 X112.024 Y92.841 E22.97425
G1 X112.02 Y99.984 E23.33062
G1 X111.985 Y100.889 E23.3758
G1 X111.882 Y101.796 E23.42134
G1 X111.723 Y102.655 E23.46493
G1 X111.488 Y103.536 E23.51042
G1 X111.192 Y104.382 E23.55513
G1 X110.83 Y105.207 E23.60008
G1 X110.412 Y106.003 E23.64493
G1 X109.935 Y106.762 E23.68966
G1 X109.392 Y107.496 E23.73521
G1 X108.815 Y108.168 E23.7794
G1 X108.169 Y108.814 E23.82498
G1 X107.497 Y109.392 E23.8692
G1 X106.776 Y109.926 E23.91396
G1 X106.015 Y110.403 E23.95877
G1 X105.209 Y110.829 E24.00425
G1 X104.38 Y111.191 E24.04938
G1 X103.547 Y111.483 E24.09342
G1 X102.681 Y111.717 E24.13817
G1 X101.797 Y111.883 E24.18305
G1 X100.891 Y111.985 E24.22853
G1 X100 Y112.018 E24.27302
G1 X99.109 Y111.985 E24.3175
G1 X98.202 Y111.882 E24.36304
G1 X97.328 Y111.719 E24.4074
G1 X96.453 Y111.483 E24.45261
G1 X95.62 Y111.191 E24.49665
G1 X94.791 Y110.829 E24.54178
G1 X93.985 Y110.403 E24.58726
G1 X93.224 Y109.926 E24.63207
G1 X92.503 Y109.392 E24.67683
G1 X91.831 Y108.813 E24.72109
G1 X91.186 Y108.168 E24.76659
G1 X90.608 Y107.496 E24.81082
G1 X90.065 Y106.763 E24.85633
G1 X89.588 Y106.003 E24.90109
G1 X89.17 Y105.207 E24.94595
G1 X88.808 Y104.382 E24.99089
G1 X88.512 Y103.536 E25.03561
G1 X88.279 Y102.664 E25.08064
G1 X88.117 Y101.795 E25.12474
G1 X88.015 Y100.89 E25.17018
G1 X87.981 Y100.022 E25.21352
G1 X87.978 Y92.916 E25.56804
G1 X87.89 Y92.589 E25.58493
G1 X87.684 Y92.301 E25.6026
G0 F3600 X87.684 Y92.1
G0 X93.181 Y103.868
G0 X93.615 Y104.549
G0 X94.116 Y105.181
G0 X94.679 Y105.758
G0 X95.302 Y106.276
G0 X95.97 Y106.725
G0 X96.678 Y107.102
G0 X97.432 Y107.407
G0 X99.787 Y107.978
G1 F1800 X100.647 Y107.954 E25.64552
G1 X101.432 Y107.852 E25.68501
G1 X102.228 Y107.664 E25.72582
G1 X103.034 Y107.382 E25.76842
G1 X103.753 Y107.047 E25.80799
G1 X104.484 Y106.601 E25.85071
G1 X105.121 Y106.122 E25.89048
G1 X105.704 Y105.58 E25.93019
G1 X106.278 Y104.928 E25.97353
G1 X106.739 Y104.28 E26.0132
G1 X107.128 Y103.591 E26.05268
G1 X107.474 Y102.801 E26.09571
G1 X107.719 Y102.04 E26.13559
G1 X107.883 Y101.266 E26.17506
G1 X107.973 Y100.38 E26.21949
G1 X107.967 Y99.526 E26.2621
G1 X107.875 Y98.711 E26.30302
G1 X107.704 Y97.913 E26.34374
G1 X107.473 Y97.202 E26.38103
G1 X107.125 Y96.406 E26.42438
G1 X106.718 Y95.692 E26.46538
G1 X106.226 Y95.008 E26.50741
G1 X105.735 Y94.455 E26.54431
G1 X105.133 Y93.891 E26.58546
G1 X104.496 Y93.408 E26.62535
G1 X103.772 Y92.968 E26.66761
G1 X103.035 Y92.618 E26.70832
G1 X102.204 Y92.33 E26.7522
G1 X101.37 Y92.138 E26.79489
G1 X100.665 Y92.048 E26.83035
G1 X99.739 Y92.024 E26.87657
G1 X98.92 Y92.092 E26.91757
G1 X98.178 Y92.231 E26.95523
G1 X97.424 Y92.445 E26.99433
G1 X96.632 Y92.764 E27.03693
G1 X95.866 Y93.173 E27.08025
G1 X95.225 Y93.606 E27.11884
G1 X94.619 Y94.107 E27.15807
G1 X94.007 Y94.727 E27.20154
G1 X93.514 Y95.35 E27.24117
G1 X93.031 Y96.114 E27.28627
G1 X92.703 Y96.773 E27.32299
G1 X92.408 Y97.54 E27.36399
G1 X92.184 Y98.394 E27.40804
G1 X92.059 Y99.201 E27.44878
G1 X92.02 Y99.956 E27.4865
G1 X92.067 Y100.862 E27.53176
G1 X92.181 Y101.594 E27.56872
G1 X92.408 Y102.462 E27.61348
G1 X92.706 Y103.235 E27.65481
G1 X93.06 Y103.939 E27.69412
G1 X93.504 Y104.637 E27.73539
G1 X94.003 Y105.268 E27.77553
G1 X94.565 Y105.846 E27.81575
G1 X95.177 Y106.358 E27.85556
G1 X95.861 Y106.824 E27.89685
G1 X96.633 Y107.238 E27.94055
G1 X97.376 Y107.539 E27.98055
G1 X98.181 Y107.77 E28.02233
G1 X98.926 Y107.908 E28.06013
G1 X99.787 Y107.978 E28.10323
G0 F3600 X97.432 Y107.407
G0 X96.678 Y107.102
G0 X95.97 Y106.725
G0 X95.302 Y106.276
G0 X87.839 Y99.998
G0 X87.828 Y92.172
G0 X75.414 Y91.819
G1 F1800 X75.179 Y91.584 E28.11981
G0 F3600 X75.179 Y91.018
G1 F1800 X75.98 Y91.819 E28.17632
G0 F3600 X76.545 Y91.819
G1 F1800 X75.179 Y90.453 E28.2727
G0 F3600 X75.179 Y89.887
G1 F1800 X77.111 Y91.819 E28.40902
G0 F3600 X77.677 Y91.819
G1 F1800 X75.179 Y89.321 E28.58526
G0 F3600 X75.179 Y88.756
G1 F1800 X78.242 Y91.819 E28.80137
G0 F3600 X78.808 Y91.819
G1 F1800 X75.179 Y88.19 E29.05742
G0 F3600 X75.734 Y88.179
G1 F1800 X79.374 Y91.819 E29.31424
G0 F3600 X79.939 Y91.819
G1 F1800 X76.3 Y88.179 E29.57103
G0 F3600 X76.866 Y88.179
G1 F1800 X80.505 Y91.819 E29.82781
G0 F3600 X81.071 Y91.819
G1 F1800 X77.431 Y88.179 E30.08464
G0 F3600 X77.997 Y88.179
G1 F1800 X81.636 Y91.819 E30.34142
G0 F3600 X82.202 Y91.819
G1 F1800 X78.563 Y88.179 E30.59821
G0 F3600 X79.128 Y88.179
G1 F1800 X82.768 Y91.819 E30.85503
G0 F3600 X83.333 Y91.819
G1 F1800 X79.694 Y88.179 E31.11182
G0 F3600 X80.26 Y88.179
G1 F1800 X83.899 Y91.819 E31.3686
G0 F3600 X84.465 Y91.819
G1 F1800 X80.825 Y88.179 E31.62543
G0 F3600 X81.391 Y88.179
G1 F1800 X85.031 Y91.819 E31.88225
G0 F3600 X85.596 Y91.819
G1 F1800 X81.957 Y88.179 E32.13903
G0 F3600 X82.522 Y88.179
G1 F1800 X86.162 Y91.819 E32.39585
G0 F3600 X86.728 Y91.819
G1 F1800 X83.088 Y88.179 E32.65268
G0 F3600 X83.654 Y88.179
G1 F1800 X87.342 Y91.868 E32.91292
G1 X87.412 Y91.938
G0 F3600 X88.106 Y92.632
G1 F1800 X92.422 Y96.947 E33.2174
G0 F3600 X92.59 Y96.55
G1 F1800 X84.219 Y88.179 E33.80802
G0 F3600 X84.785 Y88.179
G1 F1800 X92.778 Y96.172 E34.37197
G0 F3600 X92.985 Y95.814
G1 F1800 X85.351 Y88.179 E34.91063
G0 F3600 X85.917 Y88.179
G1 F1800 X93.204 Y95.467 E35.4248
G0 F3600 X93.432 Y95.129
G1 F1800 X86.482 Y88.179 E35.91516
G0 F3600 X87.048 Y88.179
G1 F1800 X93.682 Y94.813 E36.38322
G0 F3600 X93.942 Y94.508
G1 F1800 X87.614 Y88.179 E36.82973
G0 F3600 X88.179 Y88.179
G1 F1800 X94.224 Y94.224 E37.25624
G0 F3600 X94.505 Y93.939
G1 F1800 X88.745 Y88.179 E37.66264
G0 F3600 X89.311 Y88.179
G1 F1800 X94.815 Y93.684 E38.05101
G0 F3600 X95.125 Y93.428
G1 F1800 X89.876 Y88.179 E38.42136
G0 F3600 X90.442 Y88.179
G1 F1800 X95.463 Y93.2 E38.77562
G0 F3600 X95.807 Y92.978
G1 F1800 X91.008 Y88.179 E39.11421
G0 F3600 X91.573 Y88.179
G1 F1800 X96.176 Y92.782 E39.43898
G0 F3600 X96.544 Y92.585
G1 F1800 X92.139 Y88.179 E39.74981
G0 F3600 X92.705 Y88.179
G1 F1800 X96.945 Y92.419 E40.04896
G0 F3600 X97.35 Y92.259
G1 F1800 X93.27 Y88.179 E40.33683
G0 F3600 X93.836 Y88.179
G1 F1800 X97.79 Y92.133 E40.61581
G0 F3600 X98.237 Y92.015
G1 F1800 X94.402 Y88.179 E40.88642
G0 F3600 X94.967 Y88.179
G1 F1800 X98.714 Y91.926 E41.15079
G0 F3600 X99.221 Y91.867
G1 F1800 X95.533 Y88.179 E41.411
G0 F3600 X96.099 Y88.179
G1 F1800 X99.745 Y91.825 E41.66825
G0 F3600 X100.325 Y91.839
G1 F1800 X96.665 Y88.179 E41.92648
G0 F3600 X97.23 Y88.179
G1 F1800 X100.932 Y91.881 E42.18767
G0 F3600 X101.602 Y91.986
G1 F1800 X97.796 Y88.179 E42.45624
G0 F3600 X98.362 Y88.179
G1 F1800 X102.352 Y92.169 E42.73776
G1 X102.422 Y92.239
G0 F3600 X103.245 Y92.497
G1 F1800 X98.927 Y88.179 E43.04242
G0 F3600 X99.493 Y88.179
G1 F1800 X104.478 Y93.164 E43.39414
G1 X104.548 Y93.234
G0 F3600 X106.85 Y95.537
G1 F1800 X111.799 Y100.486 E43.74332
G0 F3600 X111.768 Y101.02
G1 F1800 X107.484 Y96.736 E44.04557
G1 X107.414 Y96.666
G0 F3600 X107.823 Y97.64
G1 F1800 X111.71 Y101.528 E44.31986
G0 F3600 X111.637 Y102.02
G1 F1800 X108.011 Y98.394 E44.57569
G0 F3600 X108.114 Y99.063
G1 F1800 X111.548 Y102.497 E44.81798
G0 F3600 X111.437 Y102.951
G1 F1800 X108.166 Y99.68 E45.04877
G0 F3600 X108.17 Y100.25
G1 F1800 X111.317 Y103.398 E45.27084
G0 F3600 X111.176 Y103.822
G1 F1800 X108.132 Y100.778 E45.48561
G0 F3600 X108.08 Y101.292
G1 F1800 X111.029 Y104.24 E45.69364
G0 F3600 X110.86 Y104.638
G1 F1800 X107.982 Y101.759 E45.89674
G0 F3600 X107.871 Y102.215
